packages/icons/raw/imported/SecurityKey.svg

<svg width="32" height="32" viewBox="0 0 32 32" fill="none" xmlns="http://www.w3.org/2000/svg">
<path d="M22.472 8.7173L22.8222 9.07414L22.472 8.7173ZM20.9457 10.2154L20.5955 9.85854L20.9457 10.2154ZM22.1962 13.5443C22.3933 13.7378 22.7098 13.7348 22.9033 13.5377C23.0967 13.3407 23.0937 13.0241 22.8967 12.8307L22.1962 13.5443ZM20.9457 11.6163L21.2959 11.2595L21.2959 11.2595L20.9457 11.6163ZM25.1498 10.6453C25.3468 10.8387 25.6634 10.8358 25.8568 10.6387C26.0503 10.4416 26.0473 10.1251 25.8503 9.93163L25.1498 10.6453ZM23.8993 8.71731L23.5491 9.07414L23.5491 9.07414L23.8993 8.71731ZM24.4836 7.35683C24.6807 7.1634 24.6836 6.84683 24.4902 6.64976C24.2968 6.45268 23.9802 6.44973 23.7831 6.64317L24.4836 7.35683ZM15.6717 14.6047C15.4747 14.7981 15.4717 15.1147 15.6651 15.3118C15.8586 15.5089 16.1752 15.5118 16.3722 15.3184L15.6717 14.6047ZM22.1217 8.36047L20.5955 9.85854L21.2959 10.5722L22.8222 9.07414L22.1217 8.36047ZM22.8967 12.8307L21.2959 11.2595L20.5955 11.9732L22.1962 13.5443L22.8967 12.8307ZM25.8503 9.93163L24.2495 8.36047L23.5491 9.07414L25.1498 10.6453L25.8503 9.93163ZM22.8222 9.07414C23.0219 8.87816 23.3494 8.87816 23.5491 9.07414L24.2495 8.36047C23.6609 7.78271 22.7104 7.78271 22.1217 8.36047L22.8222 9.07414ZM20.5955 9.85854C20.0016 10.4414 20.0016 11.3903 20.5955 11.9732L21.2959 11.2595C21.1015 11.0686 21.1015 10.7631 21.2959 10.5722L20.5955 9.85854ZM17.2854 19.4616C17.2854 22.2355 14.9918 24.5 12.1427 24.5V25.5C15.5264 25.5 18.2854 22.8053 18.2854 19.4616H17.2854ZM12.1427 24.5C9.29363 24.5 7 22.2355 7 19.4616H6C6 22.8053 8.75901 25.5 12.1427 25.5V24.5ZM7 19.4616C7 16.6877 9.29363 14.4231 12.1427 14.4231V13.4231C8.75901 13.4231 6 16.1179 6 19.4616H7ZM12.1427 14.4231C14.9918 14.4231 17.2854 16.6877 17.2854 19.4616H18.2854C18.2854 16.1179 15.5264 13.4231 12.1427 13.4231V14.4231ZM23.7831 6.64317L15.6717 14.6047L16.3722 15.3184L24.4836 7.35683L23.7831 6.64317Z" fill="black"/>
</svg>

<svg width="32" height="32" fill="none" xmlns="http://www.w3.org/2000/svg"><path d="m22.472 8.717.35.357-.35-.357Zm-1.526 1.498-.35-.356.35.356Zm1.25 3.33a.5.5 0 1 0 .7-.714l-.7.713Zm-1.25-1.929.35-.357-.35.357Zm4.204-.97a.5.5 0 1 0 .7-.714l-.7.713ZM23.9 8.716l-.35.357.35-.357Zm.584-1.36a.5.5 0 1 0-.7-.714l.7.714Zm-8.812 7.248a.5.5 0 0 0 .7.713l-.7-.713Zm6.45-6.245L20.596 9.86l.7.713 1.526-1.498-.7-.714Zm.775 4.47-1.601-1.57-.7.713 1.6 1.571.7-.713Zm2.953-2.898-1.6-1.572-.7.714 1.6 1.571.7-.713Zm-3.028-.858a.523.523 0 0 1 .727 0l.7-.714a1.523 1.523 0 0 0-2.127 0l.7.714Zm-2.226.785a1.478 1.478 0 0 0 0 2.114l.7-.714a.478.478 0 0 1 0-.687l-.7-.713Zm-3.31 9.603c0 2.773-2.294 5.038-5.143 5.038v1c3.383 0 6.142-2.695 6.142-6.038h-1ZM12.142 24.5C9.293 24.5 7 22.235 7 19.462H6c0 3.343 2.759 6.038 6.143 6.038v-1ZM7 19.462c0-2.774 2.294-5.039 5.143-5.039v-1C8.759 13.423 6 16.118 6 19.462h1Zm5.143-5.039c2.849 0 5.142 2.265 5.142 5.039h1c0-3.344-2.759-6.039-6.142-6.039v1Zm11.64-7.78-8.111 7.962.7.713 8.112-7.961-.7-.714Z" fill="#000"/></svg>
